X: 50
T:Nos Galan
T:New Year's Eve
M:C|
L:1/8
Q:200
C:Trad
S:51 Welsh Airs
R:Welsh Hornpipe
A:Wales
H:From a facsimile c.1840: A Choice Collection of Fifty-One Welsh Airs
H:adapted for The Harp, Piano-Forte, Harpsichord,
H:Violin, or Flute by Edward Jones
H:"Harper to His Late Majesty King George IV, when
H:Prince of Wales".
Z:brian_martin12345@yahoo.com
K:F
c3BA2G2|F2F2A2F2|GABG (A3G)|F2E2F4|
c3BA2G2|F2F2A2F2|GABG (A3G)|F2E2F4||]!
G3AB2G2|A3Bc2G2|(A/B/)c3(B/c/d3)|e2d2c4|
c3BA2G2|F2F2A2F2|GdBG (A3G)|F2C2 F4:||
